X:1
T:Cuando Fernando VII
T:(popular)
Z:Transcripcion de Federico Abad - Departamento de Música del IES Gran Capitán
L:1/8
M:2/4
I:linebreak $
K:C
V:1 treble+8 nm="Soprano Recorder"
V:1
 G |: EE EF | GG GA | FF FG |1 E2 z G :|2 E2 z C ||$ AA AA | AA AB | cc BA | G2 GG | !>!c2 z E | %11
w: Cuan-|do Fer- nan- do|sép- ti- mo u-|sa- ba pa- le-|tó. Cuan-|tó. Cuan-|do Fer- nan- do|sép- ti- mo u-|sa- ba pa- le-|tó, ¡pa- le-|tó!, u-|
 GF ED |$ C2 z2 |] %13
w: sa- ba- pa- le-|tó.|
